Papirus/32x32/mimetypes/text-x-python.svg

<svg xmlns="http://www.w3.org/2000/svg" width="32" height="32" version="1">
 <path style="opacity:0.2" d="M 7.25,5 C 6.5575,5 6,5.5575 6,6.25 v 22.5 C 6,29.442 6.5575,30 7.25,30 h 17.5 C 25.442,30 26,29.442 26,28.75 V 13 L 19.125,11.875 18,5 Z"/>
 <path fill="#e4e4e4" d="m7.25 4c-0.6925 0-1.25 0.5575-1.25 1.25v22.5c0 0.692 0.5575 1.25 1.25 1.25h17.5c0.692 0 1.25-0.558 1.25-1.25v-15.75l-6.875-1.125-1.125-6.875z"/>
 <path style="opacity:0.2" d="m 18,5 v 6.6667 c 0,0.736 0.597,1.333 1.333,1.333 H 26 l -8,-8 z"/>
 <path fill="#fafafa" d="m18 4v6.6667c0 0.736 0.597 1.333 1.333 1.333h6.667l-8-8z"/>
 <path d="m 15.168,14 c -1.5947,0 -3.1096,1.0531 -3.0099,2.1875 v 1.4967 h -1.102 c -1.1389,-0.001 -2.056,1.02 -2.056,2.614 v 0.82237 c 0,1.595 0.9171,2.879 2.056,2.879 h 0.944 V 22.45475 C 12.0001,22 13.0231,21 13.9343,21 h 3.2895 c 0,0 1.7763,-0.19003 1.7763,-1.83475 v -2.97818 c 0,-1.139 -1.415,-2.188 -3.01,-2.188 z M 14,15.579 c 0.43602,0 0.78947,0.35346 0.78947,0.78947 0,0.43601 -0.35346,0.78947 -0.78947,0.78947 -0.43602,0 -0.78947,-0.35346 -0.78947,-0.78947 0,-0.43602 0.35346,-0.78947 0.78947,-0.78947 z" style="fill:#4795d1"/>
 <path fill="#fff" opacity=".2" d="m7.25 4c-0.6925 0-1.25 0.5575-1.25 1.25v1c0-0.6925 0.5575-1.25 1.25-1.25h10.75v-1z"/>
 <path style="fill:#ffa751" d="M 19 18 L 19 19.166016 C 19 20.810736 17.224609 21 17.224609 21 L 13.933594 21 C 13.138199 21 12.257856 21.761665 12.046875 22.257812 C 12.027494 22.43083 12 22.585469 12 22.800781 L 12 24 L 12 25.8125 C 12 26.9515 13.414766 28 15.009766 28 L 15.832031 28 C 17.426731 28 18.941497 26.9469 18.841797 25.8125 L 18.841797 24.316406 L 19.943359 24.316406 C 21.082359 24.317406 22 23.295172 22 21.701172 L 22 20.878906 C 22 19.283906 21.082359 18 19.943359 18 L 19 18 z M 17 24.841797 C 17.43602 24.841797 17.789062 25.194849 17.789062 25.630859 C 17.789062 26.066879 17.43601 26.421875 17 26.421875 C 16.56398 26.421875 16.210938 26.066869 16.210938 25.630859 C 16.210938 25.194849 16.56399 24.841797 17 24.841797 z"/>
</svg>

<svg xmlns="http://www.w3.org/2000/svg" width="32" height="32" version="1">
 <path style="opacity:0.2" d="M 7.25,5 C 6.5575,5 6,5.5575 6,6.25 v 22.5 C 6,29.442 6.5575,30 7.25,30 h 17.5 C 25.442,30 26,29.442 26,28.75 V 13 L 19.125,11.875 18,5 Z"/>
 <path fill="#ccc" d="m7.25 4c-0.6925 0-1.25 0.5575-1.25 1.25v22.5c0 0.692 0.5575 1.25 1.25 1.25h17.5c0.692 0 1.25-0.558 1.25-1.25v-15.75l-6.875-1.125-1.125-6.875z"/>
 <path style="opacity:0.2" d="m 18,5 v 6.6667 c 0,0.736 0.597,1.333 1.333,1.333 H 26 l -8,-8 z"/>
 <path fill="#ebebeb" d="m18 4v6.6667c0 0.736 0.597 1.333 1.333 1.333h6.667l-8-8z"/>
 <path opacity=".5" d="m15.168 14c-1.5947 0-3.1096 1.0531-3.0099 2.1875v1.4967h-1.102c-1.1389-0.001-2.056 1.02-2.056 2.614v0.82237c0 1.595 0.9171 2.879 2.056 2.879h0.944v-1.645c0-0.91118 1.023-1.5132 1.9342-1.5132h3.2895s1.7763-0.13158 1.7763-1.7763v-2.878c0-1.139-1.415-2.188-3.01-2.188zm-1.168 1.579c0.43602 0 0.78947 0.35346 0.78947 0.78947s-0.35346 0.78947-0.78947 0.78947c-0.43602 0-0.78947-0.35346-0.78947-0.78947 0-0.43602 0.35346-0.78947 0.78947-0.78947z"/>
 <path fill="#fff" opacity=".2" d="m7.25 4c-0.6925 0-1.25 0.5575-1.25 1.25v1c0-0.6925 0.5575-1.25 1.25-1.25h10.75v-1z"/>
 <path opacity=".3" d="m15.832 28c1.5947 0 3.1096-1.0531 3.0099-2.1875v-1.4967h1.102c1.139 0.001 2.056-1.02 2.056-2.614v-0.82237c0-1.595-0.917-2.879-2.056-2.879h-0.944v1.6447c0 0.91118-1.023 1.5132-1.9342 1.5132h-3.2895s-1.776 0.197-1.776 1.842v2.8125c0 1.139 1.415 2.188 3.01 2.188zm1.168-1.579c-0.43602 0-0.78947-0.35346-0.78947-0.78947s0.35346-0.78947 0.78947-0.78947c0.43602 0 0.78947 0.35346 0.78947 0.78947 0 0.43602-0.35346 0.78947-0.78947 0.78947z"/>
</svg>
